!!!COM: Mozart, Wolfgang Amadeus
!!!CDT: 1756/01/27/-1791/12/05/
!!!CNT: German
!!!OTL: Piano Sonata No. 1 in C major
!!!SCT1: K<sup>1</sup> 279
!!!SCT2: K<sup>6</sup> 189d
!!!OMV: Mvmt. 3
!!!OMD: Allegro
!!!ODT: 1774///
**kern	**dynam	**kern	**dynam
*staff2	*	*staff1	*staff1/2
*>[A,A,B,B]	*	*>[A,A,B,B]	*>[A,A,B,B]
*>norep[A,B]	*	*>norep[A,B]	*>norep[A,B]
*>A	*	*>A	*>A
*clefF4	*	*clefG2	*clefG2
*k[]	*	*k[]	*k[]
*C:	*	*C:	*C:
*M2/4	*	*M2/4	*M2/4
*MM132	*	*MM132	*MM132
8r	.	8g/	p
*clefG2	*	*	*
=1	=1	=1	=1
8r	.	2cc\	.
(8e/ 8g/L	.	.	.
8d/ 8f/	.	.	.
8c/) 8e/J	.	.	.
=2	=2	=2	=2
8r	.	2ff\	.
(8B/ 8d/L	.	.	.
8A/ 8c/	.	.	.
8G/) 8B/J	.	.	.
=3	=3	=3	=3
(8c/L	.	(16ee\LL	.
.	.	16gg\	.
8cc/	.	16ff\	.
.	.	16ee\JJ	.
8f/	.	16aa\LL	.
.	.	16ff\	.
8f#/J	.	16dd\	.
.	.	16cc\JJ	.
=4	=4	=4	=4
4g'/)	.	16b\LL	.
.	.	16cc\	.
.	.	16dd\	.
.	.	16b\JJ	.
4G/	.	16a/LL	.
.	.	16g/	.
.	.	16f#/	.
.	.	16g/JJ)	.
*clefF4	*	*	*
=5	=5	=5	=5
8r	.	2c/	f
8E\ (8G\L	.	.	.
8D\ 8Fn\	.	.	.
8C\ 8E\J)	.	.	.
=6	=6	=6	=6
8r	.	2f/	.
(8BB/ 8D/L	.	.	.
8AA/ 8C/	.	.	.
8GG/) 8BB/J	.	.	.
=7	=7	=7	=7
8C/L	.	(16e/LL	.
.	.	16g/	.
8E/	.	16cc/	.
.	.	16g/JJ	.
8D/	.	16f#/LL	.
.	.	16g/	.
8BB/J	.	16fn/	.
.	.	16g/JJ	.
=8	=8	=8	=8
8C/L	.	16e/LL	.
.	.	16g/	.
8E/	.	16cc/	.
.	.	16g/JJ	.
8D/	.	16f#/LL	.
.	.	16g/	.
8BB/J	.	16fn/	.
.	.	16g/JJ	.
=9	=9	=9	=9
8C\L	.	16e/LL	.
.	.	16g/	.
8E\	.	16c/	.
.	.	16e/JJ	.
8F\	.	16d/LL	.
.	.	16f/	.
8G\J	.	16B/	.
.	.	16d/JJ	.
=10	=10	=10	=10
8C/L	.	4c/)	.
8GG/J	.	.	.
4CC/	.	8r	.
.	.	8gT/	.
.	.	16f#q/LL	.
.	.	16gq/JJ	.
*clefG2	*	*	*
=11	=11	=11	=11
4c/ 4e/ 4g/	.	(16cc\LL	.
.	.	16g\	.
.	.	16ee\	.
.	.	16cc\JJ	.
4r	.	16gg\LL	.
.	.	16ff#\	.
.	.	16gg\	.
.	.	16ee\JJ)	.
=12	=12	=12	=12
4B/ 4d/ 4g/	.	(16ee\LL	.
.	.	16dd\	.
.	.	16cc#\	.
.	.	16dd\JJ)	.
4r	.	(16cc#\LL	.
.	.	16dd\)	.
.	.	(16cc#\	.
.	.	16dd\JJ)	.
=13	=13	=13	=13
4B/ 4d/ 4g/	.	(16gg\LL	.
.	.	16aa\	.
.	.	16bb\)	.
.	.	16ff#'\JJ	.
4r	.	(16gg\LL	.
.	.	16dd\)	.
.	.	(16ee\	.
.	.	16b\JJ)	.
=14	=14	=14	=14
4A/ 4c/ 4f#/	.	(16dd\LL	.
.	.	16ccn\	.
.	.	16b\	.
.	.	16cc\JJ)	.
4r	.	(16b\LL	.
.	.	16cc\)	.
.	.	(16b\	.
.	.	16cc\JJ)	.
=15	=15	=15	=15
2d/ 2f#/	.	(16aa\LL	.
.	.	16bb\	.
.	.	16ccc\)	.
.	.	16aa'\JJ	.
.	.	(16ff#\LL	.
.	.	16ee\	.
.	.	16dd\	.
.	.	16cc\JJ)	.
=16	=16	=16	=16
4e/ 4g/	.	(16cc\LL	.
.	.	16b\	.
.	.	16a#\	.
.	.	16b\JJ	.
4d/ 4f#/	.	16cc\LL	.
.	.	16b\	.
.	.	16a#\	.
.	.	16b\JJ	.
=17	=17	=17	=17
4.c/ 4.e/	.	16an\LL	.
.	.	16cc\	.
.	.	16ee\)	.
.	.	16dd'\JJ	.
.	.	(16cc\LL	.
.	.	16b\	.
8c#/ 8e/	.	16a\	.
.	.	16g\JJ	.
=18	=18	=18	=18
16d'\LL	.	8f#/)	.
(16dd\	.	.	.
16cc#\	.	8r	.
16dd\JJ	.	.	.
16ccn\LL	.	8ff#'\L	.
16dd\	.	.	.
16b\	.	8gg'\J	.
16dd\JJ	.	.	.
=19	=19	=19	=19
16a\LL	.	8aa'\L	.
16dd\	.	.	.
16g\	.	8bb'\J	.
16dd\JJ	.	.	.
16f#\LL	.	8aa'\ 8ccc'\L	.
16dd\	.	.	.
16g\	.	8gg'\ 8bb'\J	.
16dd\JJ	.	.	.
=20	=20	=20	=20
16d'/)	.	8ff#\ 8aa\	.
*clefF4	*	*	*
(16d\LL	.	.	.
16c#\	.	8r	.
16d\JJ	.	.	.
16cn\LL	.	8f#'/L	.
16d\	.	.	.
16B\	.	(8gT/J	.
16d\JJ	.	.	.
.	.	16f#q/LL	.
.	.	16gq/JJ	.
=21	=21	=21	=21
16A\LL	.	8a'/L)	.
16d\	.	.	.
16G\	.	(8bt/J	.
16d\JJ	.	.	.
.	.	16aq/LL	.
.	.	16bq/JJ	.
16F#\LL	.	8a'/) 8cc'/L	.
16d\	.	.	.
16G\	.	8g'/ 8b'/J	.
16d\JJ	.	.	.
=22	=22	=22	=22
4D\)	.	4f#/ 4a/	.
4r	.	8r	.
.	.	8dd'\	p
=23	=23	=23	=23
2r	.	8dd'\L	.
.	.	8dd'\	.
.	.	8dd'\	.
.	.	8dd'\J	.
*clefG2	*	*	*
=24	=24	=24	=24
*^	*	*	*
8r	8ryy	.	(4.gg\	.
(8b/L	4e\	.	.	.
8cc#/	.	.	.	.
8dd/J)	8d\	.	8ff#\)	.
*v	*v	*	*	*
=25	=25	=25	=25
2r	.	8b'\L	.
.	.	8b'\	.
.	.	8b'\	.
.	.	8b'\J	.
=26	=26	=26	=26
*^	*	*	*
8r	8ryy	.	(4.ee\	.
(8g/L	4cn\	.	.	.
8a/	.	.	.	.
8b/J)	8B\	.	8dd\)	.
*v	*v	*	*	*
=27	=27	=27	=27
2r	.	8g'/L	.
.	.	8g'/	.
.	.	8g'/	.
.	.	8g'/J	.
=28	=28	=28	=28
*^	*	*	*
8r	8ryy	.	4cc\	.
(8e/L	4A\	.	.	.
8f#/	.	.	8r	.
8g/J)	8G\	.	(8b\	.
*v	*v	*	*	*
=29	=29	=29	=29
8r	.	4ee\)	.
(8c/	.	.	.
4c#/)	.	8r	.
.	.	(8g/	.
=30	=30	=30	=30
8d/	.	4f#/)	.
(8cc#\	.	.	.
4dd\)	.	8r	.
.	.	(8g/ 8b-/	pp
=31	=31	=31	=31
8r	.	4f#/) 4a/	.
(8c#/	.	.	.
*	*	*clefF4	*clefF4
4d/)	.	8r	.
.	.	8G\ (8B-\	.
*clefF4	*	*	*
=32	=32	=32	=32
8r	.	4F#\ 4A\)	.
(8DD#/ 8D#/L	.	.	f
8EE/ 8E/	.	4r	.
8FF#/) 8F#/J	.	.	.
=33	=33	=33	=33
8GG/ 8G/	.	2r	.
(8BBB/ 8BB/L	.	.	.
8CC/ 8C/	.	.	.
8DDn/) 8Dn/J	.	.	.
=34	=34	=34	=34
8EE/ 8E/	.	8r	.
*clefG2	*	*clefG2	*clefG2
(8ee\L	.	(16gg\LL	.
.	.	16ccc\JJ	.
8dd\	.	16bb\LL	.
.	.	16ff#\	.
8cc\J	.	16ee\	.
.	.	16aa\JJ	.
=35	=35	=35	=35
8b/L	.	16gg\LL	.
.	.	16dd\	.
8a/	.	16cc\	.
.	.	16ff#\JJ	.
8g/	.	16ee\LL	.
.	.	16b\	.
8f#/J	.	16a\	.
.	.	16dd\JJ	.
=36	=36	=36	=36
8e/L	.	16cc/LL	.
.	.	16g/	.
8d/	.	16f#/	.
.	.	16b/JJ	.
8c/	.	16a/LL	.
.	.	16e/	.
8B/J)	.	16d/	.
.	.	16g/JJ)	.
*clefF4	*	*	*
=37	=37	=37	=37
4C/	.	8r	.
.	.	8cc\ (8ee\L	.
4D\	.	8b\ 8dd\)	.
.	.	8f#\ 8a\J	.
=38	=38	=38	=38
!LO:TX:t=legato	!	!	!
16GG\LL	.	4g/	.
16G\	.	.	.
16F#\	.	.	.
16G\JJ	.	.	.
!	!	!LO:S:a	!
.	.	(32cq/	.
16E\LL	.	8cc\)	p
16G\	.	.	.
16F#\	.	8r	.
16G\JJ	.	.	.
=39	=39	=39	=39
!	!	!LO:S:a	!
.	.	(32Bq/	.
16D\LL	.	8b\)	.
16G\	.	.	.
16F#\	.	8r	.
16G\JJ	.	.	.
.	.	(32Aq/	.
16C\LL	.	8a/)	.
16G\	.	.	.
16F#\	.	8r	.
16G\JJ	.	.	.
=40	=40	=40	=40
.	.	(32Gq/	.
16BB\LL	.	8g/)	.
16G\	.	.	.
16F#\	.	8r	.
16G\JJ	.	.	.
!	!	!LO:S:a	!
.	.	(32cq/	.
16E\LL	.	8cc'\L)	f
16G\	.	.	.
16F#\	.	8cc'\J	.
16G\JJ	.	.	.
=41	=41	=41	=41
!	!	!LO:S:a	!
.	.	(32Bq/	.
16D\LL	.	8b'\L)	.
16G\	.	.	.
16F#\	.	8b'\J	.
16G\JJ	.	.	.
.	.	(32Aq/	.
16C\LL	.	8a'/L)	.
16G\	.	.	.
16F#\	.	8a'/J	.
16G\JJ	.	.	.
=42	=42	=42	=42
!	!	!LO:S:a	!
.	.	(32dq/	.
16BB\LL	.	8dd'\)	.
16G\	.	.	.
16F#\	.	8r	.
16G\JJ	.	.	.
*clefG2	*	*	*
.	.	(32bq/	.
16e/LL	.	8cc'\L)	p
16g/	.	.	.
16f#/	.	8cc'\J	.
16g/JJ	.	.	.
=43	=43	=43	=43
.	.	(32a#q/	.
16d/LL	.	8b'\L)	.
16g/	.	.	.
16f#/	.	8b\J	.
16g/JJ	.	.	.
.	.	(32g#q/	.
16c/LL	.	8an'/L)	.
16g/	.	.	.
16f#/	.	8a'/J	.
16g/JJ	.	.	.
=44	=44	=44	=44
.	.	(32cc#q/	.
16B/LL	.	8dd'\)	.
16g/	.	.	.
16f#/	.	8r	.
16g/JJ	.	.	.
4c/ 4e/ 4a/	.	(16ccn\LL	f
.	.	16dd\	.
.	.	16ee\	.
.	.	16cc\JJ	.
=45	=45	=45	=45
4d/ 4g/	.	16b\LL	.
.	.	16cc\	.
.	.	16dd\	.
.	.	16b\JJ	.
4d/ 4f#/	.	16a\LL	.
.	.	16b\	.
.	.	16cc\	.
.	.	16a\JJ	.
=46	=46	=46	=46
4G/ 4g/	.	16g'\LL)	.
.	.	(16gg\	.
.	.	16bb\	.
.	.	16aa\JJ	.
4r	.	16gg\LL	.
.	.	16ff#\	.
.	.	16ee\	.
.	.	16dd\JJ	.
=47	=47	=47	=47
(4e/ 4g/	.	4cc#\	f
8f#/) 8a/L	.	8ccn\L)	.
8g'/J	.	8b'\J	p
=48	=48	=48	=48
8c'/ 8e'/	.	8a'/	.
8r	.	8r	.
16c/LL	.	(16ee\LL	f
16a/	.	16ccc\	.
16g#/	.	16bb\	.
16a/JJ	.	16ccc\JJ	.
=49	=49	=49	=49
16d/LL	.	16dd\LL	.
16gn/	.	16bb\	.
16f#/	.	16aa\	.
16g/JJ	.	16bb\JJ	.
16d/LL	.	16dd\LL	.
16f#/	.	16aa\	.
16e/	.	16gg\	.
16f#/JJ	.	16aa\JJ	.
=50	=50	=50	=50
4g/	.	16gg\LL)	.
.	.	(16g\	p
.	.	16b\	.
.	.	16a\JJ	.
4r	.	16g/LL	.
.	.	16f#/	.
.	.	16e/	.
.	.	16d/JJ	.
*clefF4	*	*	*
=51	=51	=51	=51
4E\ (4G\	.	4c#/	f
8F#\ 8A\L)	.	8cn/L)	.
8G'\J	.	8B'/J	p
=52	=52	=52	=52
8C'\ 8E'\	.	8A'/	.
8r	.	8r	.
16C\LL	.	(16e/LL	f
16A\	.	16cc/	.
16G#\	.	16b/	.
16A\JJ	.	16cc/JJ	.
=53	=53	=53	=53
16D\LL	.	16d/LL	.
16Gn\	.	16b/	.
16F#\	.	16a/	.
16G\JJ	.	16b/JJ	.
16D\LL	.	16d/LL	.
16F#\	.	16a/	.
16E\	.	16g/	.
16F#\JJ	.	16a/JJ	.
=54	=54	=54	=54
4G\	.	16g/LL	.
.	.	16d/	.
.	.	16g/	.
.	.	16b/JJ	.
4D\ 4A\	.	16dd/LL	.
.	.	16cc/	.
.	.	16a/	.
.	.	16f#/JJ	.
=55	=55	=55	=55
4G\ 4B\	.	16g\LL	.
.	.	16gg\	.
.	.	16dd\	.
.	.	16b\JJ	.
4D\ 4A\ 4c\	.	16dd\LL	.
.	.	16cc\	.
.	.	16a\	.
.	.	16f#\JJ	.
=56	=56	=56	=56
4G\ 4B\	.	4g/)	.
8r	.	8r	.
=:|!|:	=:|!|:	=:|!|:	=:|!|:
*>B	*	*>B	*>B
8r	.	8dd'\	p
=57	=57	=57	=57
2r	.	8dd'\L	.
.	.	8dd'\	.
.	.	8dd'\	.
.	.	8dd'\J	.
*clefG2	*	*	*
=58	=58	=58	=58
8r	.	(4.gg\	.
(8B/ 8d/L	.	.	.
8c#/ 8b/	.	.	.
8d/) 8a/J	.	8ff#\)	.
=59	=59	=59	=59
2r	.	8b'\L	.
.	.	8b'\	.
.	.	8b'\	.
.	.	8b'\J	.
=60	=60	=60	=60
8r	.	(4.ee\	.
(8G/ 8B/L	.	.	.
8A#/ 8g/	.	.	.
8B/) 8f#/J	.	8dd\)	.
=61	=61	=61	=61
4B/ 4fn/	.	8g'/L	.
.	.	8g'/	.
4cn/ 4e/	.	8g'/	.
.	.	8g'/J	.
=62	=62	=62	=62
*	*	*^	*
4A/	.	(4.cc/	8r	.
.	.	.	(8e\L	.
8r	.	.	8a\	.
8e'/	.	8b/)	8g#\J)	.
*	*	*v	*v	*
=63	=63	=63	=63
8e'/L	.	2r	.
8e'/	.	.	.
8e'/	.	.	.
8e'/J	.	.	.
=64	=64	=64	=64
(4.a/	.	8r	.
.	.	8cc\ (8ee\L	.
.	.	8dd#\ 8ccc\	.
8gn/)	.	8ee\ 8bb\J)	.
=65	=65	=65	=65
8c'/L	.	2r	.
8c'/	.	.	.
8c'/	.	.	.
8c'/J	.	.	.
=66	=66	=66	=66
(4.fn/	.	8r	.
.	.	8a\ (8cc\L	.
.	.	8b\ 8aa\	.
8e/)	.	8cc\ 8gg\J)	.
=67	=67	=67	=67
8A'/L	.	2r	.
8A'/	.	.	.
8A'/	.	.	.
8A'/J	.	.	.
=68	=68	=68	=68
(4.d/	.	8r	.
.	.	8fn\ (8a\L	.
.	.	8g#\ 8ffn\	.
8c/)	.	8a\ 8ee\J)	.
*clefF4	*	*	*
=69	=69	=69	=69
4F\ 4f\	.	8r	f
.	.	16aa'\LL	.
.	.	16dd#'\JJ	.
8r	.	(8ccc\L	.
8FF/ 8F/	.	8aa\J)	.
=70	=70	=70	=70
4EE/ 4E/	.	8r	.
.	.	16gg#'\LL	.
.	.	16ee'\JJ	.
8r	.	(8bb\L	.
8E\ 8e\	.	8gg#\J)	.
=71	=71	=71	=71
4F\ 4f\	.	8r	.
.	.	16aa'\LL	.
.	.	16dd#'\JJ	.
8r	.	8ccc'\L	.
8FF/ 8F/	.	8aa'\J	.
=72	=72	=72	=72
*^	*	*	*
8EE/ 8E/	4.ryy	.	8gg#\	.
*clefG2	*	*	*	*
(8a/L	.	.	(16ccc\LL	.
.	.	.	16ee\JJ	.
8g#/	.	.	16bb\LL	.
.	.	.	16ee\	.
8cc/J)	8e\	.	16aa\	.
.	.	.	16ee\JJ	.
=73	=73	=73	=73	=73
(8b/L	4e\	.	16gg#\LL	.
.	.	.	16ee\	.
8a/	.	.	16ccc\	.
.	.	.	16ee\JJ	.
8g#/	8r	.	16bb\LL	.
.	.	.	16ee\	.
8cc/J)	8e\	.	16aa\	.
.	.	.	16ee\JJ	.
=74	=74	=74	=74	=74
8b/L	2e\	.	16gg#\LL	.
.	.	.	16ee\	.
8cc/	.	.	16aa\	.
.	.	.	16ee\JJ	.
8g#/	.	.	16bb\LL	.
.	.	.	16ee\	.
8a/J	.	.	16ccc\	.
.	.	.	16ee\JJ	.
=75	=75	=75	=75	=75
4g#/	4e\	.	4bb\)	.
*v	*v	*	*	*
*clefF4	*	*	*
!LO:S:b	!		!
(32d#q/	.	(32dd#q/	.
4e\)	.	4ee\)	.
=76	=76	=76	=76
4EE/ 4E/	.	4e/	.
8r;	.	8r;	.
8r	.	8B/	p
=77	=77	=77	=77
8r	.	2e/	.
8Gn\ (8B\L	.	.	.
8F#\ 8A\	.	.	.
8E\ 8G\J)	.	.	.
=78	=78	=78	=78
8r	.	2a/	.
8D#\ (8F#\L	.	.	.
8C#\ 8E\	.	.	.
8BB\ 8D#\J)	.	.	.
=79	=79	=79	=79
2EE/ 2E/	.	8g/L	f
.	.	(16b-/L	.
.	.	16a/JJ	.
.	.	16g/LL	.
.	.	16fn/	.
.	.	16e/	.
.	.	16dn/JJ	.
=80	=80	=80	=80
2GG/ 2G/	.	8c#/L)	.
.	.	(16e/L	.
.	.	16d/JJ	.
.	.	16c#/LL	.
.	.	16A/	.
.	.	16Bn/	.
.	.	16c#/JJ	.
=81	=81	=81	=81
8FFn/ 8Fn/	.	2d/)	.
8F\ (8A\L	.	.	p
8E\ 8G\	.	.	.
8D\ 8F\J)	.	.	.
=82	=82	=82	=82
8r	.	2g/	.
(8C#/ 8E/L	.	.	.
8BB/ 8D/	.	.	.
8AA/) 8C#/J	.	.	.
=83	=83	=83	=83
2DD/ 2D/	.	8f/L	f
.	.	(16a/L	.
.	.	16g/JJ	.
.	.	16f/LL	.
.	.	16e/	.
.	.	16d/	.
.	.	16cn/JJ)	.
=84	=84	=84	=84
2FF/ 2F/	.	(8B/L	.
.	.	16d/L	.
.	.	16c/JJ	.
.	.	16B/LL	.
.	.	16G/	.
.	.	16A/	.
.	.	16B/JJ	.
=85	=85	=85	=85
8EE/ 8E/	.	2c/)	.
8E\ (8G\L	.	.	.
8D\ 8F\	.	.	.
8C\ 8E\J)	.	.	.
=86	=86	=86	=86
*	*	*^	*
8r	.	4r	2f\	.
(8BB/ 8D/L	.	.	.	.
8AA/ 8C/	.	8r	.	.
8GG/) 8BB/J	.	8g/	.	.
*clefG2	*	*	*	*
*	*	*v	*v	*
=87	=87	=87	=87
.	.	(32eq/	.
8r	.	2cc\)	p
(8e/ 8g/L	.	.	.
8d/ 8f/	.	.	.
8c/) 8e/J	.	.	.
=88	=88	=88	=88
.	.	(32gq/	.
8r	.	2ff\)	.
(8B/ 8d/L	.	.	.
8A/ 8c/	.	.	.
8G/) 8B/J	.	.	.
=89	=89	=89	=89
(8c/L	.	(16ee\LL	.
.	.	16gg\	.
8cc/	.	16ff\	.
.	.	16ee\JJ	.
8f/	.	16aa\LL	.
.	.	16ff\	.
8f#/J	.	16dd\	.
.	.	16cc\JJ	.
=90	=90	=90	=90
4g'/)	.	16b\LL	.
.	.	16cc\	.
.	.	16dd\	.
.	.	16b\JJ	.
4G/	.	16a/LL	.
.	.	16g/	.
.	.	16f#/	.
.	.	16g/JJ)	.
*clefF4	*	*	*
=91	=91	=91	=91
2CC/ 2C/	.	8r	.
.	.	8ee\ (8gg\L	f
.	.	8dd\ 8ffn\	.
.	.	8cc\ 8ee\J)	.
=92	=92	=92	=92
2FF/ 2F/	.	8r	.
.	.	8b\ (8dd\L	.
.	.	8a\ 8cc\	.
.	.	8g\ 8b\J)	.
=93	=93	=93	=93
(16E\LL	.	(8cc\L	.
16G\	.	.	.
16c\	.	8ee\	.
16G\JJ	.	.	.
16F#\LL	.	8dd\	.
16G\	.	.	.
16Fn\	.	8b\J	.
16G\JJ	.	.	.
=94	=94	=94	=94
8E\L)	.	16cc/LL	.
.	.	16ee/	.
8E\	.	16cc/	.
.	.	16g/JJ	.
8D\	.	16f#/LL	.
.	.	16g/	.
8BB\J	.	16fn/	.
.	.	16g/JJ	.
=95	=95	=95	=95
8C\L	.	16e/LL	.
.	.	16g/	.
8E\	.	16c/	.
.	.	16e/JJ	.
8F\	.	16d/LL	.
.	.	16f/	.
8G\J	.	16B/	.
.	.	16d/JJ	.
=96	=96	=96	=96
8C/L	.	4c/)	.
8GG/J	.	.	.
4CC/	.	8r	.
.	.	8ccT\	.
.	.	16bq/LL	.
.	.	16ccq/JJ	.
*clefG2	*	*	*
=97	=97	=97	=97
4c/ 4g/ 4b-/	.	(16ee\LL	.
.	.	16cc\	.
.	.	16gg\	.
.	.	16ee\JJ	.
4r	.	16bb-\LL	.
.	.	16aa\	.
.	.	16bb-\	.
.	.	16gg\JJ)	.
=98	=98	=98	=98
4c/ 4f/ 4a/	.	(16gg\LL	.
.	.	16ff\	.
.	.	16ee\	.
.	.	16ff\JJ)	.
4r	.	(16ee\LL	.
.	.	16ff\)	.
.	.	(16ee\	.
.	.	16ff\JJ)	.
=99	=99	=99	=99
4c/ 4f/ 4a/	.	(16ff\LL	.
.	.	16cc\	.
.	.	16aa\	.
.	.	16ff\JJ	.
4r	.	16ccc\LL	.
.	.	16bbn\	.
.	.	16ccc\	.
.	.	16aa\JJ)	.
=100	=100	=100	=100
4c/ 4e/ 4g/	.	(16aa\LL	.
.	.	16gg\	.
.	.	16ff#\	.
.	.	16gg\JJ)	.
4r	.	(16ff#\LL	.
.	.	16gg\)	.
.	.	(16ff#\	.
.	.	16gg\JJ)	.
=101	=101	=101	=101
4e/ 4g/	.	(16ccc\LL	.
.	.	16bb\	.
.	.	16aa\	.
.	.	16gg\JJ	.
4r	.	16ffn\LL	.
.	.	16ee\	.
.	.	16dd\	.
.	.	16cc\JJ	.
=102	=102	=102	=102
4f/ 4a/	.	16ee\LL	.
.	.	16dd\	.
.	.	16cc#\	.
.	.	16dd\JJ	.
4r	.	16ee\LL	.
.	.	16dd\	.
.	.	16cc#\	.
.	.	16dd\JJ	.
=103	=103	=103	=103
4.f/ 4.a/	.	16dd\LL	.
.	.	16ff\	.
.	.	16aa\)	.
.	.	16gg'\JJ	.
.	.	(16ff\LL	.
.	.	16ee\	.
8f#/ 8a/	.	16dd\	.
.	.	16ccn\JJ	.
=104	=104	=104	=104
16G'/LL	.	8b\)	.
(16g/	.	.	.
16f#/	.	8r	.
16g/JJ	.	.	.
16fn/LL	.	8b'\L	.
16g/	.	.	.
16e/	.	8cc'\J	.
16g/JJ	.	.	.
=105	=105	=105	=105
16d/LL	.	8dd'\L	.
16g/	.	.	.
16c/	.	8ee'\J	.
16g/JJ	.	.	.
16B/LL	.	8dd'\ 8ff'\L	.
16g/	.	.	.
16c/	.	8cc'\ 8ee'\J	.
16g/JJ	.	.	.
=106	=106	=106	=106
16G'/)	.	8b\ 8dd\	.
*clefF4	*	*	*
(16G\LL	.	.	.
16F#\	.	8r	.
16G\JJ	.	.	.
16Fn\LL	.	8B'/L	.
16G\	.	.	.
16E\	.	8ct/J	.
16G\JJ	.	.	.
.	.	16Bq/LL	.
.	.	16cq/JJ	.
=107	=107	=107	=107
16D\LL	.	8d'/L	.
16G\	.	.	.
16C\	.	8et/J	.
16G\JJ	.	.	.
.	.	16dq/LL	.
.	.	16eq/JJ	.
16BB\LL	.	8d/ 8f/L	.
16G\	.	.	.
16C\	.	8c/ 8e/J	.
16G\JJ	.	.	.
=108	=108	=108	=108
4GG/)	.	4B/ 4d/	.
4r	.	8r	.
.	.	8gg'\	p
=109	=109	=109	=109
2r	.	8gg'\L	.
.	.	8gg'\	.
.	.	8gg'\	.
.	.	8gg'\J	.
*clefG2	*	*	*
=110	=110	=110	=110
*^	*	*	*
8r	8ryy	.	(4.ccc\	.
(8ee/L	4a\	.	.	.
8ff#/	.	.	.	.
8gg/J)	8g\	.	8bb\)	.
*v	*v	*	*	*
=111	=111	=111	=111
2r	.	8ee'\L	.
.	.	8ee'\	.
.	.	8ee'\	.
.	.	8ee'\J	.
=112	=112	=112	=112
*^	*	*	*
8r	8ryy	.	(4.aa\	.
(8cc/L	4fn\	.	.	.
8dd/	.	.	.	.
8ee/J)	8e\	.	8gg\)	.
*v	*v	*	*	*
=113	=113	=113	=113
2r	.	8cc'\L	.
.	.	8cc'\	.
.	.	8cc'\	.
.	.	8cc'\J	.
=114	=114	=114	=114
*^	*	*	*
8r	8ryy	.	4ff\	.
(8a/L	4d\	.	.	.
8b/	.	.	8r	.
8cc/J)	8c\	.	(8ee\	.
*v	*v	*	*	*
=115	=115	=115	=115
8r	.	4aa\)	.
(8f/	.	.	.
4f#/)	.	8r	.
.	.	(8cc\	.
=116	=116	=116	=116
8g/	.	4b\)	.
(8ff#\	.	.	.
4gg\)	.	8r	.
.	.	8cc\ (8ee-\	pp
=117	=117	=117	=117
8r	.	4b\ 4dd\)	.
(8f#/	.	.	.
4g/)	.	8r	.
.	.	(8c/ 8e-/	.
*clefF4	*	*	*
=118	=118	=118	=118
8r	.	4B/) 4d/	f
8GG#\ (8G#\L	.	.	.
8AA\ 8A\	.	4r	.
8BB\ 8B\J)	.	.	.
=119	=119	=119	=119
8C\ 8c\	.	2r	.
(8EE/ 8E/L	.	.	.
8FF/ 8F/	.	.	.
8GGn/) 8Gn/J	.	.	.
=120	=120	=120	=120
8AA\ 8A\	.	8r	.
*clefG2	*	*	*
(8a/L	.	(16cc\LL	.
.	.	16ff\JJ	.
8g/	.	16ee\LL	.
.	.	16b\	.
8f/J	.	16a\	.
.	.	16dd\JJ	.
=121	=121	=121	=121
8e/L	.	16cc/LL	.
.	.	16g/	.
8d/	.	16f/	.
.	.	16b/JJ	.
8c/	.	16a/LL	.
.	.	16e/	.
8B/J	.	16d/	.
.	.	16g/JJ	.
*clefF4	*	*	*
=122	=122	=122	=122
8A\L	.	16f/LL	.
.	.	16c/	.
8G\	.	16B/	.
.	.	16e/JJ	.
8F\	.	16d/LL	.
.	.	16A/	.
8E\J)	.	16G/	.
.	.	16c/JJ)	.
=123	=123	=123	=123
4F\	.	8r	.
.	.	8ff\ (8aa\L	.
4G\	.	8ee\ 8gg\)	.
.	.	8b\ 8dd\J	.
=124	=124	=124	=124
16C'\LL	.	4e/ 4cc/	.
(16c\	.	.	.
16B\	.	.	.
16c\JJ	.	.	.
!	!	!LO:S:a	!
.	.	(32fq/	.
16A\LL	.	8ff\)	p
16c\	.	.	.
16B\	.	8r	.
16c\JJ)	.	.	.
=125	=125	=125	=125
!	!	!LO:S:a	!
.	.	(32eq/	.
(16G\LL	.	8ee\)	.
16c\	.	.	.
16B\	.	8r	.
16c\JJ	.	.	.
!	!	!LO:S:a	!
.	.	(32dq/	.
16F\LL	.	8dd\)	.
16c\	.	.	.
16B\	.	8r	.
16c\JJ)	.	.	.
=126	=126	=126	=126
!	!	!LO:S:a	!
.	.	(32cq/	.
(16E\LL	.	8cc\)	.
16c\	.	.	.
16B\	.	8r	.
16c\JJ	.	.	.
!	!	!LO:S:a	!
.	.	(32fq/	.
16A\LL	.	8ff'\L)	f
16c\	.	.	.
16B\	.	8ff'\J	.
16c\JJ)	.	.	.
=127	=127	=127	=127
!	!	!LO:S:a	!
.	.	(32eq/	.
(16G\LL	.	8ee'\L)	.
16c\	.	.	.
16B\	.	8ee'\J	.
16c\JJ	.	.	.
!	!	!LO:S:a	!
.	.	(32dq/	.
16F\LL	.	8dd'\L)	.
16c\	.	.	.
16B\	.	8dd'\J	.
16c\JJ)	.	.	.
=128	=128	=128	=128
.	.	(32gq/	.
(16E\LL	.	8gg\)	.
16c\	.	.	.
16B\	.	8r	.
16c\JJ)	.	.	.
*clefG2	*	*	*
.	.	(32eeq/	.
(16a/LL	.	8ff'\L)	p
16cc/	.	.	.
16b/	.	8ff'\J	.
16cc/JJ)	.	.	.
=129	=129	=129	=129
.	.	(32dd#q/	.
(16g/LL	.	8ee'\L)	.
16cc/	.	.	.
16b/	.	8ee'\J	.
16cc/JJ	.	.	.
.	.	(32cc#q/	.
16f/LL	.	8ddn'\L)	.
16cc/	.	.	.
16b/	.	8dd'\J	.
16cc/JJ)	.	.	.
=130	=130	=130	=130
.	.	(32ff#q/	.
(16e/LL	.	8gg\)	.
16cc/	.	.	.
16b/	.	8r	.
16cc/JJ)	.	.	.
4f/ 4a/ 4dd/	.	(16ffn\LL	f
.	.	16gg\	.
.	.	16aa\	.
.	.	16ff\JJ	.
=131	=131	=131	=131
4g/ 4cc/	.	16ee\LL	.
.	.	16ff\	.
.	.	16gg\	.
.	.	16ee\JJ	.
4g/ 4b/	.	16dd\LL	.
.	.	16ee\	.
.	.	16ff\	.
.	.	16dd\JJ	.
=132	=132	=132	=132
8r	.	4cc\)	p
(8ff#\	.	.	.
4gg\)	.	8r	.
.	.	8cc\ (8ee-\	.
*clefF4	*	*	*
=133	=133	=133	=133
8r	.	4b\ 4dd\)	f
(8F#\	.	.	.
4G\)	.	8r	.
.	.	(8c/ 8e-/	.
=134	=134	=134	=134
8r	.	4B/) 4d/	.
(8FF#/	.	.	.
4GG/)	.	4r	.
=135	=135	=135	=135
2r	.	4r	.
.	.	8r	.
.	.	8gg'\	p
=136	=136	=136	=136
2r	.	8gg'\L	.
.	.	8gg'\	.
.	.	8gg'\	.
.	.	8gg'\J	.
=137	=137	=137	=137
*	*	*^	*
2r	.	(4.ccc/	8r	.
.	.	.	(8aa\L	.
.	.	.	8ff#\	.
.	.	8bb/)	8gg\J)	.
=138	=138	=138	=138	=138
2r	.	(4.aa/	8r	.
.	.	.	(8ffn\L	.
.	.	.	8dd#\	.
.	.	8gg/)	8ee\J)	.
=139	=139	=139	=139	=139
4r	.	(4.ff/	8r	.
.	.	.	8ddn\L	.
8r	.	.	8b\	.
8GG'/ 8G'/	f	8ee/)	8cc\J)	.
*	*	*v	*v	*
=140	=140	=140	=140
8GG'/ 8G'/L	.	2r	.
8GG'/ 8G'/	.	.	.
8GG'/ 8G'/	.	.	.
8GG'/ 8G'/J	.	.	.
=141	=141	=141	=141
*	*	*^	*
4.C\ (4.c\	.	8r	8r	.
.	.	(8ee/L	4a\	f
.	.	8ff#/	.	.
8BB\ 8B\)	.	8gg/J)	8g\	.
*	*	*v	*v	*
=142	=142	=142	=142
8EE'/ 8E'/L	.	2r	.
8EE'/ 8E'/	.	.	.
8EE'/ 8E'/	.	.	.
8EE'/ 8E'/J	.	.	.
=143	=143	=143	=143
*	*	*^	*
(4.AA/ 4.A/	.	8r	8r	.
.	.	(8cc/L	4f#\	.
.	.	8dd#/	.	.
8GG/) 8G/	.	8ee/J)	8e\	.
*	*	*v	*v	*
=144	=144	=144	=144
8CC'/ 8C'/L	.	2r	.
8CC'/ 8C'/	.	.	.
8CC'/ 8C'/	.	.	.
8CC'/ 8C'/J	.	.	.
=145	=145	=145	=145
*	*	*^	*
(4.FFn/ 4.Fn/	.	8r	8r	.
.	.	(8a/L	4dn\	.
.	.	8b/	.	.
8EE/) 8E/	.	8cc/J)	8c\	.
*	*	*v	*v	*
=146	=146	=146	=146
4FF/ 4F/	.	8r	.
.	.	8ff\ (8aa\L	.
4GG/ 4G/	.	8ee\ 8gg\)	.
.	.	8b\ 8dd\J	.
=147	=147	=147	=147
4C/	.	16cc\	.
.	.	(16ccc\LL	p
.	.	16eee\	.
.	.	16ddd\JJ	.
4r	.	16ccc\LL	.
.	.	16bb\	.
.	.	16aa\	.
.	.	16gg\JJ)	.
*clefG2	*	*	*
=148	=148	=148	=148
4a\ (4cc\	.	(4ff#\	f
8b\ 8dd\L)	.	8ffn\L)	.
8cc'\J	.	8ee'\J	p
=149	=149	=149	=149
8f'/ 8a'/	.	8dd'\	.
8r	.	8r	.
*clefF4	*	*	*
16F\LL	.	(16a\LL	f
16d\	.	16ff\	.
16c#\	.	16ee\	.
16d\JJ	.	16ff\JJ	.
=150	=150	=150	=150
16G\LL	.	16g\LL	.
16cn\	.	16ee\	.
16B\	.	16dd\	.
16c\JJ	.	16ee\JJ	.
16G\LL	.	16g\LL	.
16B\	.	16dd\	.
16A\	.	16cc\	.
16B\JJ	.	16dd\JJ	.
=151	=151	=151	=151
4C\ 4c\	.	16cc\LL)	.
.	.	(16cc\	.
.	.	16ee\	.
.	.	16dd\JJ	.
4r	.	16cc/LL	.
.	.	16b/	.
.	.	16a/	.
.	.	16g/JJ	.
=152	=152	=152	=152
4A\ (4c\	.	4f#/	f
8B\ 8d\L)	.	8fn/L)	.
8c'\J	.	8e'/J	p
=153	=153	=153	=153
8F'\ 8A'\	.	8d'/	.
8r	.	8r	.
(16FF/LL	.	(16A/LL	f
16D/	.	16f/	.
16C#/	.	16e/	.
16D/JJ	.	16f/JJ	.
=154	=154	=154	=154
16GG/LL	.	16G/LL	.
16Cn/	.	16e/	.
16BB/	.	16d/	.
16C/JJ	.	16e/JJ	.
16GG/LL	.	16G/LL	.
16BB/	.	16d/	.
16AA/	.	16c/	.
16BB/JJ	.	16d/JJ	.
=155	=155	=155	=155
4C/)	.	16c/LL	.
.	.	16G/	.
.	.	16c/	.
.	.	16e/JJ	.
4GG/ 4D/	.	16g/LL	.
.	.	16f/	.
.	.	16d/	.
.	.	16B/JJ	.
=156	=156	=156	=156
4C\ 4E\	.	16c/LL)	.
!	!	!LO:S:a	!
.	.	(16g/	.
.	.	16cc/	.
.	.	16ee/JJ	.
4G\ 4d\	.	16gg\LL	.
.	.	16ff\	.
.	.	16dd\	.
.	.	16b\JJ	.
=157	=157	=157	=157
4c\ 4e\	.	4cc\)	.
4GG/ 4G/	.	4dd:\ 4ff:\ 4gg:\ 4bb:\	.
=158	=158	=158	=158
4CC/ 4C/	.	4cc:\ 4ee:\ 4gg:\ 4ccc:\	.
8r	.	8r	.
=:|!	=:|!	=:|!	=:|!
*-	*-	*-	*-
!!!SMS: Alte Mozart-Ausgabe, Band 20, Breitkopf &amp; H&auml;rtel 1877-1883.
!!!ONB: Stich und Druck von Breitkopf &amp; H&auml;rtel in Leipzig
!!!ONB: Ausgegeben 1878
!!!ENC: Craig Stuart Sapp
!!!END: 2009/10/12/
!!!EED: Craig Stuart Sapp
!!!EEV: 2016/07/31/
!!!title: @{OTL}, K 279 (189d), @{OMV}
!!!hum2abc: --no-tempo -s 0.65 --spacing 2.0 -p "%gracespace  0 6.0 12.0"
